images/50273082.svg

<?xml version="1.0" encoding="UTF-8"?>
<svg xmlns="http://www.w3.org/2000/svg" xmlns:xlink="http://www.w3.org/1999/xlink" width="300pt" height="300pt" viewBox="0 0 300 300" version="1.1">
<defs>
<g>
<symbol overflow="visible" id="glyph0-0">
<path style="stroke:none;" d="M 0.640625 2.296875 L 0.640625 -9.171875 L 7.140625 -9.171875 L 7.140625 2.296875 Z M 1.375 1.578125 L 6.421875 1.578125 L 6.421875 -8.4375 L 1.375 -8.4375 Z M 1.375 1.578125 "/>
</symbol>
<symbol overflow="visible" id="glyph0-1">
<path style="stroke:none;" d="M 5.125 -8.609375 C 4.1875 -8.609375 3.441406 -8.257812 2.890625 -7.5625 C 2.347656 -6.875 2.078125 -5.929688 2.078125 -4.734375 C 2.078125 -3.535156 2.347656 -2.585938 2.890625 -1.890625 C 3.441406 -1.203125 4.1875 -0.859375 5.125 -0.859375 C 6.050781 -0.859375 6.785156 -1.203125 7.328125 -1.890625 C 7.878906 -2.585938 8.15625 -3.535156 8.15625 -4.734375 C 8.15625 -5.929688 7.878906 -6.875 7.328125 -7.5625 C 6.785156 -8.257812 6.050781 -8.609375 5.125 -8.609375 Z M 5.125 -9.65625 C 6.445312 -9.65625 7.503906 -9.207031 8.296875 -8.3125 C 9.097656 -7.414062 9.5 -6.222656 9.5 -4.734375 C 9.5 -3.234375 9.097656 -2.035156 8.296875 -1.140625 C 7.503906 -0.253906 6.445312 0.1875 5.125 0.1875 C 3.789062 0.1875 2.722656 -0.253906 1.921875 -1.140625 C 1.128906 -2.035156 0.734375 -3.234375 0.734375 -4.734375 C 0.734375 -6.222656 1.128906 -7.414062 1.921875 -8.3125 C 2.722656 -9.207031 3.789062 -9.65625 5.125 -9.65625 Z M 5.125 -9.65625 "/>
</symbol>
<symbol overflow="visible" id="glyph0-2">
<path style="stroke:none;" d="M 1.28125 -9.484375 L 3 -9.484375 L 7.203125 -1.546875 L 7.203125 -9.484375 L 8.453125 -9.484375 L 8.453125 0 L 6.71875 0 L 2.515625 -7.921875 L 2.515625 0 L 1.28125 0 Z M 1.28125 -9.484375 "/>
</symbol>
</g>
</defs>
<g id="surface14689">
<rect x="0" y="0" width="300" height="300" style="fill:rgb(100%,100%,100%);fill-opacity:1;stroke:none;"/>
<path style="fill:none;stroke-width:1.2;stroke-linecap:butt;stroke-linejoin:miter;stroke:rgb(100%,0%,0%);stroke-opacity:1;stroke-miterlimit:10;" d="M 241.292969 84.265625 L 253.023438 95.832031 "/>
<path style="fill:none;stroke-width:1.2;stroke-linecap:butt;stroke-linejoin:miter;stroke:rgb(0%,0%,0%);stroke-opacity:1;stroke-miterlimit:10;" d="M 253.023438 95.832031 L 264.75 107.398438 "/>
<path style="fill:none;stroke-width:1.2;stroke-linecap:butt;stroke-linejoin:miter;stroke:rgb(100%,0%,0%);stroke-opacity:1;stroke-miterlimit:10;" d="M 241.292969 84.265625 L 225.414062 88.636719 "/>
<path style="fill:none;stroke-width:1.2;stroke-linecap:butt;stroke-linejoin:miter;stroke:rgb(0%,0%,0%);stroke-opacity:1;stroke-miterlimit:10;" d="M 225.414062 88.636719 L 209.53125 93.011719 "/>
<path style=" stroke:none;fill-rule:nonzero;fill:rgb(100%,100%,100%);fill-opacity:1;" d="M 236.292969 76.265625 L 247.292969 76.265625 L 247.292969 92.265625 L 236.292969 92.265625 Z M 236.292969 76.265625 "/>
<g style="fill:rgb(100%,0%,0%);fill-opacity:1;">
  <use xlink:href="#glyph0-1" x="236.292969" y="88.641602"/>
</g>
<path style="fill:none;stroke-width:1.2;stroke-linecap:butt;stroke-linejoin:miter;stroke:rgb(0%,0%,0%);stroke-opacity:1;stroke-miterlimit:10;" d="M 209.53125 93.011719 L 201.226562 124.890625 "/>
<path style="fill:none;stroke-width:1.2;stroke-linecap:butt;stroke-linejoin:miter;stroke:rgb(0%,0%,0%);stroke-opacity:1;stroke-miterlimit:10;" d="M 201.199219 94.246094 L 194.554688 119.75 "/>
<path style="fill:none;stroke-width:1.2;stroke-linecap:butt;stroke-linejoin:miter;stroke:rgb(0%,0%,0%);stroke-opacity:1;stroke-miterlimit:10;" d="M 186.074219 69.878906 L 209.53125 93.011719 "/>
<path style="fill:none;stroke-width:1.2;stroke-linecap:butt;stroke-linejoin:miter;stroke:rgb(0%,0%,0%);stroke-opacity:1;stroke-miterlimit:10;" d="M 201.226562 124.890625 L 169.464844 133.640625 "/>
<path style="fill:none;stroke-width:1.2;stroke-linecap:butt;stroke-linejoin:miter;stroke:rgb(0%,0%,0%);stroke-opacity:1;stroke-miterlimit:10;" d="M 169.464844 133.640625 L 146.007812 110.507812 "/>
<path style="fill:none;stroke-width:1.2;stroke-linecap:butt;stroke-linejoin:miter;stroke:rgb(0%,0%,0%);stroke-opacity:1;stroke-miterlimit:10;" d="M 172.5625 125.808594 L 153.796875 107.300781 "/>
<path style="fill:none;stroke-width:1.2;stroke-linecap:butt;stroke-linejoin:miter;stroke:rgb(0%,0%,0%);stroke-opacity:1;stroke-miterlimit:10;" d="M 146.007812 110.507812 L 154.3125 78.625 "/>
<path style="fill:none;stroke-width:1.2;stroke-linecap:butt;stroke-linejoin:miter;stroke:rgb(0%,0%,0%);stroke-opacity:1;stroke-miterlimit:10;" d="M 146.007812 110.507812 L 114.246094 119.253906 "/>
<path style="fill:none;stroke-width:1.2;stroke-linecap:butt;stroke-linejoin:miter;stroke:rgb(0%,0%,0%);stroke-opacity:1;stroke-miterlimit:10;" d="M 154.3125 78.625 L 186.074219 69.878906 "/>
<path style="fill:none;stroke-width:1.2;stroke-linecap:butt;stroke-linejoin:miter;stroke:rgb(0%,0%,0%);stroke-opacity:1;stroke-miterlimit:10;" d="M 159.546875 85.226562 L 184.957031 78.226562 "/>
<path style="fill:none;stroke-width:1.2;stroke-linecap:butt;stroke-linejoin:miter;stroke:rgb(0%,0%,0%);stroke-opacity:1;stroke-miterlimit:10;" d="M 114.246094 119.253906 L 88.5 98.699219 "/>
<path style="fill:none;stroke-width:1.2;stroke-linecap:butt;stroke-linejoin:miter;stroke:rgb(0%,0%,0%);stroke-opacity:1;stroke-miterlimit:10;" d="M 106.835938 123.257812 L 86.238281 106.8125 "/>
<path style="fill:none;stroke-width:1.2;stroke-linecap:butt;stroke-linejoin:miter;stroke:rgb(0%,0%,0%);stroke-opacity:1;stroke-miterlimit:10;" d="M 102.652344 150.09375 L 114.246094 119.253906 "/>
<path style="fill:none;stroke-width:1.2;stroke-linecap:butt;stroke-linejoin:miter;stroke:rgb(0%,0%,0%);stroke-opacity:1;stroke-miterlimit:10;" d="M 88.5 98.699219 L 74.75 107.765625 "/>
<path style="fill:none;stroke-width:1.2;stroke-linecap:butt;stroke-linejoin:miter;stroke:rgb(0%,0%,100%);stroke-opacity:1;stroke-miterlimit:10;" d="M 74.75 107.765625 L 60.996094 116.835938 "/>
<path style="fill:none;stroke-width:1.2;stroke-linecap:butt;stroke-linejoin:miter;stroke:rgb(0%,0%,0%);stroke-opacity:1;stroke-miterlimit:10;" d="M 79.753906 66.9375 L 88.5 98.699219 "/>
<path style="fill:none;stroke-width:1.2;stroke-linecap:butt;stroke-linejoin:miter;stroke:rgb(0%,0%,100%);stroke-opacity:1;stroke-miterlimit:10;" d="M 60.996094 116.835938 L 69.742188 148.597656 "/>
<path style="fill:none;stroke-width:1.2;stroke-linecap:butt;stroke-linejoin:miter;stroke:rgb(0%,0%,100%);stroke-opacity:1;stroke-miterlimit:10;" d="M 60.996094 116.835938 L 48.121094 106.558594 "/>
<path style="fill:none;stroke-width:1.2;stroke-linecap:butt;stroke-linejoin:miter;stroke:rgb(0%,0%,0%);stroke-opacity:1;stroke-miterlimit:10;" d="M 48.121094 106.558594 L 35.25 96.28125 "/>
<path style=" stroke:none;fill-rule:nonzero;fill:rgb(100%,100%,100%);fill-opacity:1;" d="M 55.996094 108.835938 L 65.996094 108.835938 L 65.996094 124.835938 L 55.996094 124.835938 Z M 55.996094 108.835938 "/>
<g style="fill:rgb(0%,0%,100%);fill-opacity:1;">
  <use xlink:href="#glyph0-2" x="55.996094" y="121.211914"/>
</g>
<path style="fill:none;stroke-width:1.2;stroke-linecap:butt;stroke-linejoin:miter;stroke:rgb(0%,0%,100%);stroke-opacity:1;stroke-miterlimit:10;" d="M 69.742188 148.597656 L 86.199219 149.34375 "/>
<path style="fill:none;stroke-width:1.2;stroke-linecap:butt;stroke-linejoin:miter;stroke:rgb(0%,0%,0%);stroke-opacity:1;stroke-miterlimit:10;" d="M 86.199219 149.34375 L 102.652344 150.09375 "/>
<path style="fill:none;stroke-width:1.2;stroke-linecap:butt;stroke-linejoin:miter;stroke:rgb(0%,0%,100%);stroke-opacity:1;stroke-miterlimit:10;" d="M 73.386719 141.003906 L 86.550781 141.601562 "/>
<path style="fill:none;stroke-width:1.2;stroke-linecap:butt;stroke-linejoin:miter;stroke:rgb(0%,0%,0%);stroke-opacity:1;stroke-miterlimit:10;" d="M 86.550781 141.601562 L 99.714844 142.199219 "/>
<path style=" stroke:none;fill-rule:nonzero;fill:rgb(100%,100%,100%);fill-opacity:1;" d="M 64.742188 140.597656 L 74.742188 140.597656 L 74.742188 156.597656 L 64.742188 156.597656 Z M 64.742188 140.597656 "/>
<g style="fill:rgb(0%,0%,100%);fill-opacity:1;">
  <use xlink:href="#glyph0-2" x="64.742188" y="152.973633"/>
</g>
<path style="fill:none;stroke-width:1.2;stroke-linecap:butt;stroke-linejoin:miter;stroke:rgb(0%,0%,0%);stroke-opacity:1;stroke-miterlimit:10;" d="M 102.652344 150.09375 L 120.789062 177.597656 "/>
<path style="fill:none;stroke-width:1.2;stroke-linecap:butt;stroke-linejoin:miter;stroke:rgb(0%,0%,0%);stroke-opacity:1;stroke-miterlimit:10;" d="M 120.789062 177.597656 L 113.414062 192.324219 "/>
<path style="fill:none;stroke-width:1.2;stroke-linecap:butt;stroke-linejoin:miter;stroke:rgb(0%,0%,100%);stroke-opacity:1;stroke-miterlimit:10;" d="M 113.414062 192.324219 L 106.035156 207.054688 "/>
<path style="fill:none;stroke-width:1.2;stroke-linecap:butt;stroke-linejoin:miter;stroke:rgb(0%,0%,0%);stroke-opacity:1;stroke-miterlimit:10;" d="M 126.246094 184.011719 L 120.34375 195.796875 "/>
<path style="fill:none;stroke-width:1.2;stroke-linecap:butt;stroke-linejoin:miter;stroke:rgb(0%,0%,100%);stroke-opacity:1;stroke-miterlimit:10;" d="M 120.34375 195.796875 L 114.441406 207.578125 "/>
<path style="fill:none;stroke-width:1.2;stroke-linecap:butt;stroke-linejoin:miter;stroke:rgb(0%,0%,0%);stroke-opacity:1;stroke-miterlimit:10;" d="M 153.675781 175.644531 L 120.789062 177.597656 "/>
<path style="fill:none;stroke-width:1.2;stroke-linecap:butt;stroke-linejoin:miter;stroke:rgb(0%,0%,100%);stroke-opacity:1;stroke-miterlimit:10;" d="M 106.035156 207.054688 L 115.105469 220.804688 "/>
<path style="fill:none;stroke-width:1.2;stroke-linecap:butt;stroke-linejoin:miter;stroke:rgb(0%,0%,0%);stroke-opacity:1;stroke-miterlimit:10;" d="M 115.105469 220.804688 L 124.171875 234.558594 "/>
<path style=" stroke:none;fill-rule:nonzero;fill:rgb(100%,100%,100%);fill-opacity:1;" d="M 101.035156 199.054688 L 111.035156 199.054688 L 111.035156 215.054688 L 101.035156 215.054688 Z M 101.035156 199.054688 "/>
<g style="fill:rgb(0%,0%,100%);fill-opacity:1;">
  <use xlink:href="#glyph0-2" x="101.035156" y="211.430664"/>
</g>
<path style="fill:none;stroke-width:1.2;stroke-linecap:butt;stroke-linejoin:miter;stroke:rgb(0%,0%,0%);stroke-opacity:1;stroke-miterlimit:10;" d="M 124.171875 234.558594 L 157.058594 232.605469 "/>
<path style="fill:none;stroke-width:1.2;stroke-linecap:butt;stroke-linejoin:miter;stroke:rgb(0%,0%,0%);stroke-opacity:1;stroke-miterlimit:10;" d="M 127 226.625 L 153.308594 225.0625 "/>
<path style="fill:none;stroke-width:1.2;stroke-linecap:butt;stroke-linejoin:miter;stroke:rgb(0%,0%,0%);stroke-opacity:1;stroke-miterlimit:10;" d="M 157.058594 232.605469 L 171.808594 203.148438 "/>
<path style="fill:none;stroke-width:1.2;stroke-linecap:butt;stroke-linejoin:miter;stroke:rgb(0%,0%,0%);stroke-opacity:1;stroke-miterlimit:10;" d="M 171.808594 203.148438 L 153.675781 175.644531 "/>
<path style="fill:none;stroke-width:1.2;stroke-linecap:butt;stroke-linejoin:miter;stroke:rgb(0%,0%,0%);stroke-opacity:1;stroke-miterlimit:10;" d="M 163.523438 204.664062 L 149.015625 182.660156 "/>
<path style="fill:none;stroke-width:1.2;stroke-linecap:butt;stroke-linejoin:miter;stroke:rgb(0%,0%,0%);stroke-opacity:1;stroke-miterlimit:10;" d="M 35.25 96.28125 L 46.84375 65.441406 "/>
<path style="fill:none;stroke-width:1.2;stroke-linecap:butt;stroke-linejoin:miter;stroke:rgb(0%,0%,0%);stroke-opacity:1;stroke-miterlimit:10;" d="M 46.84375 65.441406 L 79.753906 66.9375 "/>
</g>
</svg>

<svg xmlns="http://www.w3.org/2000/svg" xmlns:xlink="http://www.w3.org/1999/xlink" width="300pt" height="300pt" viewBox="0 0 300 300"><defs><symbol overflow="visible"><path d="M.64 2.297v-11.47h6.5v11.47zm.735-.72h5.047V-8.436H1.375zm0 0"/></symbol><symbol overflow="visible" id="a"><path d="M5.125-8.61c-.938 0-1.684.352-2.234 1.047-.542.688-.812 1.633-.812 2.83 0 1.198.27 2.147.813 2.842.55.687 1.297 1.03 2.235 1.03.926 0 1.66-.343 2.203-1.03.55-.696.828-1.645.828-2.844 0-1.196-.277-2.14-.828-2.829-.543-.695-1.277-1.046-2.203-1.046zm0-1.046c1.32 0 2.38.45 3.172 1.344.8.898 1.203 2.09 1.203 3.578 0 1.5-.402 2.7-1.203 3.593C7.504-.255 6.445.186 5.125.186c-1.336 0-2.402-.44-3.203-1.328C1.13-2.036.734-3.235.734-4.735c0-1.49.395-2.68 1.188-3.579.8-.894 1.867-1.343 3.203-1.343zm0 0"/></symbol><symbol overflow="visible" id="b"><path d="M1.28-9.484H3l4.203 7.937v-7.937h1.25V0H6.72L2.515-7.922V0H1.28zm0 0"/></symbol></defs><g><path fill="#fff" d="M0 0h300v300H0z"/><path d="M241.293 84.266l11.73 11.566" stroke-width="1.2" stroke="#f00" stroke-miterlimit="10" fill="none"/><path d="M253.023 95.832l11.727 11.566" stroke-width="1.2" stroke="#000" stroke-miterlimit="10" fill="none"/><path d="M241.293 84.266l-15.88 4.37" stroke-width="1.2" stroke="#f00" stroke-miterlimit="10" fill="none"/><path d="M225.414 88.637l-15.883 4.375" stroke-width="1.2" stroke="#000" stroke-miterlimit="10" fill="none"/><path d="M236.293 76.266h11v16h-11zm0 0" fill="#fff"/><use xlink:href="#a" x="236.293" y="88.642" fill="#f00"/><path d="M209.53 93.012l-8.303 31.88M201.2 94.246l-6.645 25.504M186.074 69.88L209.53 93.01M201.227 124.89l-31.762 8.75M169.465 133.64l-23.457-23.132M172.563 125.81l-18.766-18.51M146.008 110.508l8.304-31.883M146.008 110.508l-31.762 8.746M154.313 78.625l31.76-8.746M159.547 85.227l25.41-7M114.246 119.254L88.5 98.7M106.836 123.258l-20.598-16.445M102.652 150.094l11.594-30.84M88.5 98.7l-13.75 9.066" stroke-width="1.2" stroke="#000" stroke-miterlimit="10" fill="none"/><path d="M74.75 107.766l-13.754 9.07" stroke-width="1.2" stroke="#00f" stroke-miterlimit="10" fill="none"/><path d="M79.754 66.938l8.746 31.76" stroke-width="1.2" stroke="#000" stroke-miterlimit="10" fill="none"/><path d="M60.996 116.836l8.746 31.762M60.996 116.836L48.12 106.56" stroke-width="1.2" stroke="#00f" stroke-miterlimit="10" fill="none"/><path d="M48.12 106.56L35.25 96.28" stroke-width="1.2" stroke="#000" stroke-miterlimit="10" fill="none"/><path d="M55.996 108.836h10v16h-10zm0 0" fill="#fff"/><use xlink:href="#b" x="55.996" y="121.212" fill="#00f"/><path d="M69.742 148.598l16.457.746" stroke-width="1.2" stroke="#00f" stroke-miterlimit="10" fill="none"/><path d="M86.2 149.344l16.452.75" stroke-width="1.2" stroke="#000" stroke-miterlimit="10" fill="none"/><path d="M73.387 141.004l13.164.598" stroke-width="1.2" stroke="#00f" stroke-miterlimit="10" fill="none"/><path d="M86.55 141.602l13.165.597" stroke-width="1.2" stroke="#000" stroke-miterlimit="10" fill="none"/><path d="M64.742 140.598h10v16h-10zm0 0" fill="#fff"/><use xlink:href="#b" x="64.742" y="152.974" fill="#00f"/><path d="M102.652 150.094l18.137 27.504M120.79 177.598l-7.376 14.726" stroke-width="1.2" stroke="#000" stroke-miterlimit="10" fill="none"/><path d="M113.414 192.324l-7.38 14.73" stroke-width="1.2" stroke="#00f" stroke-miterlimit="10" fill="none"/><path d="M126.246 184.012l-5.902 11.785" stroke-width="1.2" stroke="#000" stroke-miterlimit="10" fill="none"/><path d="M120.344 195.797l-5.903 11.78" stroke-width="1.2" stroke="#00f" stroke-miterlimit="10" fill="none"/><path d="M153.676 175.645l-32.887 1.953" stroke-width="1.2" stroke="#000" stroke-miterlimit="10" fill="none"/><path d="M106.035 207.055l9.07 13.75" stroke-width="1.2" stroke="#00f" stroke-miterlimit="10" fill="none"/><path d="M115.105 220.805l9.067 13.754" stroke-width="1.2" stroke="#000" stroke-miterlimit="10" fill="none"/><path d="M101.035 199.055h10v16h-10zm0 0" fill="#fff"/><use xlink:href="#b" x="101.035" y="211.431" fill="#00f"/><path d="M124.172 234.56l32.887-1.955M127 226.625l26.31-1.563M157.06 232.605l14.75-29.457M171.81 203.148l-18.134-27.503M163.523 204.664l-14.507-22.004M35.25 96.28l11.594-30.84M46.844 65.44l32.91 1.498" stroke-width="1.2" stroke="#000" stroke-miterlimit="10" fill="none"/></g></svg>
